assets/images/box.svg

<svg xmlns="http://www.w3.org/2000/svg" fill="none" viewBox="0 0 20 20"><path fill="#8B9C8F" fill-rule="evenodd" d="M2 2.5C1.72386 2.5 1.5 2.72386 1.5 3V5C1.5 5.27614 1.72386 5.5 2 5.5H18C18.2761 5.5 18.5 5.27614 18.5 5V3C18.5 2.72386 18.2761 2.5 18 2.5H2ZM2 7H18V15.5C18 16.6046 17.1046 17.5 16 17.5H4C2.89543 17.5 2 16.6046 2 15.5V7ZM7 10.5C7 9.94772 7.44772 9.5 8 9.5H12C12.5523 9.5 13 9.94772 13 10.5C13 11.0523 12.5523 11.5 12 11.5H8C7.44772 11.5 7 11.0523 7 10.5Z" clip-rule="evenodd"/></svg>

<svg xmlns="http://www.w3.org/2000/svg" fill="none" viewBox="0 0 20 20"><path fill="#8b9c8f" fill-rule="evenodd" d="M2 2.5a.5.5 0 0 0-.5.5v2a.5.5 0 0 0 .5.5h16a.5.5 0 0 0 .5-.5V3a.5.5 0 0 0-.5-.5zM2 7h16v8.5a2 2 0 0 1-2 2H4a2 2 0 0 1-2-2zm5 3.5a1 1 0 0 1 1-1h4a1 1 0 1 1 0 2H8a1 1 0 0 1-1-1" clip-rule="evenodd"/></svg>
